!!!OTL: DIE ROSEN UND DIE NELKEN
!!!ARE: Europa, Mitteleuropa, Deutschland, Hessen, Kreis Wetzlar, Burgsolms
!!!SCT: E0647
!!!YEM: Copyright 1995, estate of Helmut Schaffrath.
**kern
*ICvox
*Ivox
*M6/8
*k[f#]
*G:
{8d
=1
4g
8g
4f#
8g
=2
4a
8dd
4dd}
{8dd
=3
4cc
8cc
4b
8dd
=4
2a
8r}
{8a
=5
4a
8cc
4ee
8dd
=6
4cc
8b
4b}
{8b
=7
4a
8a
4dd
8cc
=8
2b
8r}
{8b
=9
4e
8a
4g
8f#
=10
2g
8r}
==
!!!AGN: Liebes - Lied
!!!ONB: ESAC (Essen Associative Code) Database: ERK2
!!!AMT: compound duple
!!!AIN: vox
!!!EED: Helmut Schaffrath
!!!EEV: 1.0
*-
